src/icons/icons_set_01/015-horloge.svg

<svg height="50" viewBox="0 0 50 50" width="50" xmlns="http://www.w3.org/2000/svg"><g transform="translate(2.995 2.995)"><path d="m23.105662 21.9265813 8.8164987 9.4466487-1.6804 1.7280113-10.6649387-9.4830573-.193246-1.4927553.7589807-14.24979203h2.2153273z"/><path d="m41.8615647 22.005c0-5.2662884-2.092025-10.3168833-5.8158532-14.04071153-3.7238282-3.72382822-8.7744231-5.81585314-14.0407115-5.81585314-10.9664778 0-19.85656467 8.89008687-19.85656467 19.85656467s8.89008687 19.8565647 19.85656467 19.8565647 19.8565647-8.8900869 19.8565647-19.8565647zm2 0c0 12.0710473-9.7855174 21.8565647-21.8565647 21.8565647-12.07104732 0-21.85656467-9.7855174-21.85656467-21.8565647 0-12.07104734 9.78551733-21.85656467 21.85656467-21.85656467 5.7967214 0 11.3560241 2.30273861 15.4549251 6.40163958 4.098901 4.09890099 6.4016396 9.65820379 6.4016396 15.45492509z"/></g></svg>

<?xml version="1.0" encoding="UTF-8"?>
<svg width="50px" height="50px" viewBox="0 0 50 50" version="1.1" xmlns="http://www.w3.org/2000/svg" xmlns:xlink="http://www.w3.org/1999/xlink">
    <!-- Generator: Sketch 52.2 (67145) - http://www.bohemiancoding.com/sketch -->
    <title>015-horloge</title>
    <desc>Created with Sketch.</desc>
    <g id="015-horloge" stroke="none" stroke-width="1" fill="none" fill-rule="evenodd">
        <g id="Group" transform="translate(2.995000, 2.995000)" fill="#000000" fill-rule="nonzero">
            <g id="013-horloge">
                <g id="ICONSET-01">
                    <g id="013-horloge">
                        <polygon id="Shape" points="23.105662 21.9265813 31.9221607 31.37323 30.2417607 33.1012413 19.576822 23.618184 19.383576 22.1254287 20.1425567 7.87563667 22.357884 7.87563667"></polygon>
                        <path d="M41.8615647,22.005 C41.8615647,16.7387116 39.7695397,11.6881167 36.0457115,7.96428847 C32.3218833,4.24046025 27.2712884,2.14843533 22.005,2.14843533 C11.0385222,2.14843533 2.14843533,11.0385222 2.14843533,22.005 C2.14843533,32.9714778 11.0385222,41.8615647 22.005,41.8615647 C32.9714778,41.8615647 41.8615647,32.9714778 41.8615647,22.005 Z M43.8615647,22.005 C43.8615647,34.0760473 34.0760473,43.8615647 22.005,43.8615647 C9.93395268,43.8615647 0.148435333,34.0760473 0.148435333,22.005 C0.148435333,9.93395266 9.93395266,0.148435333 22.005,0.148435333 C27.8017214,0.148435333 33.3610241,2.45117394 37.4599251,6.55007491 C41.5588261,10.6489759 43.8615647,16.2082787 43.8615647,22.005 Z" id="Shape-path"></path>
                    </g>
                </g>
            </g>
        </g>
    </g>
</svg>
